icons/Bancolombia_S.A._logo.svg

<?xml version="1.0" encoding="UTF-8"?>
<svg xmlns="http://www.w3.org/2000/svg" xmlns:xlink="http://www.w3.org/1999/xlink" width="80px" height="11px" viewBox="0 0 78 11" version="1.1">
<g id="surface1">
<path style=" stroke:none;fill-rule:nonzero;fill:rgb(0%,0%,0%);fill-opacity:1;" d="M 70.816406 0.523438 C 70.328125 0.523438 69.921875 0.9375 69.921875 1.433594 C 69.921875 1.941406 70.328125 2.34375 70.816406 2.34375 C 71.316406 2.34375 71.722656 1.917969 71.722656 1.433594 C 71.722656 0.925781 71.316406 0.523438 70.816406 0.523438 Z M 7.46875 0.953125 C 7.445312 0.953125 7.421875 0.953125 7.394531 0.953125 C 5.546875 1.183594 3.761719 1.523438 1.972656 2.042969 C 1.738281 2.125 1.601562 2.371094 1.65625 2.613281 L 1.984375 3.914062 C 2.042969 4.132812 2.261719 4.246094 2.484375 4.171875 C 4.3125 3.605469 6.144531 3.21875 8.035156 2.9375 C 8.253906 2.90625 8.371094 2.679688 8.289062 2.453125 C 8.121094 1.976562 8.039062 1.738281 7.867188 1.265625 C 7.804688 1.09375 7.652344 0.96875 7.46875 0.953125 Z M 45.082031 1.007812 C 44.617188 1.007812 43.734375 1.269531 43.328125 1.574219 L 43.328125 9.160156 L 45.082031 9.160156 Z M 64.867188 1.007812 C 64.414062 1.007812 63.519531 1.269531 63.113281 1.574219 L 63.113281 8.816406 C 63.691406 9.089844 64.65625 9.277344 65.65625 9.277344 C 67.703125 9.277344 68.957031 8.035156 68.957031 5.886719 C 68.957031 4.351562 68.246094 3.136719 66.515625 3.136719 C 65.972656 3.136719 65.367188 3.371094 64.867188 3.808594 Z M 14.921875 1.292969 C 14.070312 1.292969 13.351562 1.386719 12.398438 1.527344 L 12.398438 9.160156 L 15.257812 9.160156 C 16.816406 9.160156 18.1875 8.238281 18.1875 6.855469 C 18.1875 5.804688 17.734375 5.15625 16.675781 4.847656 C 17.363281 4.578125 17.746094 4.082031 17.746094 3.335938 C 17.746094 2.035156 16.488281 1.292969 14.921875 1.292969 Z M 14.921875 2.78125 C 15.652344 2.78125 15.988281 3.125 15.988281 3.609375 C 15.988281 4.117188 15.664062 4.410156 14.96875 4.410156 L 14.175781 4.410156 L 14.175781 2.839844 C 14.421875 2.804688 14.675781 2.78125 14.921875 2.78125 Z M 34.402344 3.125 C 32.566406 3.125 31.148438 4.210938 31.148438 6.277344 C 31.148438 8.191406 32.320312 9.277344 34.109375 9.277344 C 34.632812 9.277344 35.296875 9.160156 35.9375 8.898438 L 35.621094 7.480469 C 35.191406 7.636719 34.84375 7.695312 34.539062 7.695312 C 33.4375 7.695312 32.996094 7.117188 32.996094 6.171875 C 32.996094 5.238281 33.472656 4.625 34.644531 4.625 C 34.832031 4.625 35.15625 4.671875 35.355469 4.730469 C 35.621094 4.433594 35.867188 3.914062 35.933594 3.324219 C 35.378906 3.195312 34.914062 3.125 34.402344 3.125 Z M 39.304688 3.125 C 37.527344 3.125 36.273438 4.304688 36.273438 6.195312 C 36.273438 8.0625 37.457031 9.277344 39.304688 9.277344 C 41.144531 9.277344 42.339844 8.097656 42.339844 6.195312 C 42.339844 4.351562 41.15625 3.125 39.304688 3.125 Z M 49.105469 3.125 C 47.328125 3.125 46.070312 4.304688 46.070312 6.195312 C 46.070312 8.0625 47.257812 9.277344 49.105469 9.277344 C 50.941406 9.277344 52.136719 8.097656 52.136719 6.195312 C 52.136719 4.351562 50.953125 3.125 49.105469 3.125 Z M 55.726562 3.136719 C 54.8125 3.136719 53.71875 3.40625 53.019531 3.902344 L 53.011719 9.160156 L 54.765625 9.160156 L 54.765625 4.730469 C 54.984375 4.671875 55.242188 4.636719 55.507812 4.636719 C 56.207031 4.636719 56.601562 4.953125 56.601562 5.582031 L 56.601562 9.160156 L 58.332031 9.160156 L 58.332031 5.664062 C 58.332031 5.355469 58.285156 5.074219 58.191406 4.8125 C 58.476562 4.695312 58.78125 4.636719 59.089844 4.636719 C 59.785156 4.636719 60.179688 4.953125 60.179688 5.582031 L 60.179688 9.160156 L 61.914062 9.160156 L 61.914062 4.953125 C 61.914062 3.820312 60.925781 3.136719 59.65625 3.136719 C 58.960938 3.136719 58.132812 3.394531 57.539062 3.785156 C 57.085938 3.382812 56.460938 3.136719 55.726562 3.136719 Z M 27.929688 3.136719 C 26.960938 3.136719 25.777344 3.40625 25.042969 3.902344 L 25.035156 9.160156 L 26.789062 9.160156 L 26.789062 4.730469 C 27.007812 4.671875 27.265625 4.636719 27.53125 4.636719 C 28.242188 4.636719 28.648438 4.953125 28.648438 5.582031 L 28.648438 9.160156 L 30.390625 9.160156 L 30.390625 4.953125 C 30.390625 3.808594 29.265625 3.136719 27.925781 3.136719 Z M 70.828125 3.136719 C 70.488281 3.136719 70.1875 3.195312 69.945312 3.300781 L 69.945312 9.160156 L 71.699219 9.160156 L 71.699219 3.300781 C 71.421875 3.1875 71.125 3.128906 70.828125 3.136719 Z M 21.339844 3.144531 C 20.574219 3.144531 19.863281 3.335938 19.144531 3.605469 L 19.285156 4.03125 C 19.46875 4.550781 19.691406 4.730469 19.96875 4.730469 C 20.085938 4.730469 20.980469 4.574219 21.316406 4.574219 C 21.957031 4.574219 22.246094 4.765625 22.28125 5.496094 C 20.363281 5.554688 18.75 5.96875 18.75 7.660156 C 18.75 8.78125 19.757812 9.289062 20.980469 9.289062 C 22.351562 9.289062 23.363281 9.03125 23.992188 8.542969 L 23.992188 5.4375 C 23.992188 3.785156 23.015625 3.148438 21.339844 3.144531 Z M 75.164062 3.144531 C 74.394531 3.144531 73.6875 3.335938 72.964844 3.605469 L 73.105469 4.03125 C 73.292969 4.550781 73.511719 4.730469 73.792969 4.730469 C 73.90625 4.730469 74.804688 4.574219 75.140625 4.574219 C 75.777344 4.574219 76.070312 4.765625 76.105469 5.496094 C 74.1875 5.554688 72.570312 5.96875 72.570312 7.660156 C 72.570312 8.78125 73.582031 9.289062 74.800781 9.289062 C 76.175781 9.289062 77.1875 9.03125 77.8125 8.542969 L 77.8125 5.4375 C 77.8125 3.785156 76.835938 3.148438 75.164062 3.144531 Z M 9.011719 3.84375 C 8.988281 3.839844 8.964844 3.839844 8.941406 3.84375 C 6.046875 4.214844 3.230469 4.9375 0.558594 6.128906 C 0.363281 6.21875 0.246094 6.464844 0.289062 6.683594 C 0.394531 7.242188 0.445312 7.519531 0.554688 8.078125 C 0.597656 8.316406 0.820312 8.425781 1.039062 8.320312 C 3.75 7.066406 6.617188 6.269531 9.558594 5.792969 C 9.746094 5.761719 9.839844 5.546875 9.769531 5.324219 C 9.621094 4.863281 9.546875 4.632812 9.394531 4.175781 C 9.332031 3.988281 9.175781 3.855469 9.011719 3.84375 Z M 65.769531 4.636719 C 66.667969 4.636719 67.222656 5.027344 67.222656 6.113281 C 67.222656 7.054688 66.78125 7.859375 65.757812 7.859375 C 65.480469 7.859375 65.175781 7.835938 64.863281 7.789062 L 64.863281 4.824219 C 65.121094 4.707031 65.410156 4.636719 65.769531 4.636719 Z M 39.304688 4.660156 C 40.121094 4.660156 40.585938 5.226562 40.585938 6.195312 C 40.585938 7.210938 40.121094 7.742188 39.304688 7.742188 C 38.503906 7.742188 38.027344 7.210938 38.027344 6.195312 C 38.027344 5.226562 38.515625 4.660156 39.304688 4.660156 Z M 49.105469 4.660156 C 49.917969 4.660156 50.382812 5.226562 50.382812 6.195312 C 50.382812 7.210938 49.917969 7.742188 49.105469 7.742188 C 48.300781 7.742188 47.824219 7.210938 47.824219 6.195312 C 47.824219 5.226562 48.3125 4.660156 49.105469 4.660156 Z M 14.175781 5.886719 L 15.105469 5.886719 C 15.886719 5.886719 16.28125 6.148438 16.28125 6.773438 C 16.28125 7.351562 15.851562 7.660156 15.09375 7.660156 L 14.175781 7.660156 Z M 21.945312 6.632812 L 22.28125 6.632812 L 22.28125 7.648438 C 22.109375 7.800781 21.734375 7.941406 21.285156 7.941406 C 20.714844 7.941406 20.433594 7.789062 20.433594 7.363281 C 20.433594 6.808594 21.15625 6.632812 21.945312 6.632812 Z M 75.769531 6.632812 L 76.105469 6.632812 L 76.105469 7.648438 C 75.929688 7.800781 75.558594 7.941406 75.105469 7.941406 C 74.535156 7.941406 74.257812 7.789062 74.257812 7.363281 C 74.257812 6.808594 74.976562 6.632812 75.769531 6.632812 Z M 8.980469 6.941406 C 8.953125 6.941406 8.929688 6.941406 8.90625 6.949219 C 7.097656 7.34375 5.335938 7.820312 3.585938 8.425781 C 3.367188 8.5 3.242188 8.734375 3.296875 8.957031 L 3.648438 10.253906 C 3.710938 10.496094 3.984375 10.621094 4.234375 10.527344 C 5.976562 9.890625 7.75 9.347656 9.550781 8.902344 C 9.722656 8.859375 9.808594 8.65625 9.746094 8.445312 C 9.628906 8.054688 9.507812 7.667969 9.386719 7.28125 C 9.324219 7.082031 9.15625 6.945312 8.980469 6.941406 Z M 8.980469 6.941406 "/>
</g>
</svg>

<svg xmlns="http://www.w3.org/2000/svg" width="80" height="11" viewBox="0 0 78 11"><path style="stroke:none;fill-rule:nonzero;fill:#000;fill-opacity:1" d="M70.816.523a.91.91 0 0 0-.894.91c0 .508.406.91.894.91a.92.92 0 0 0 .907-.91.905.905 0 0 0-.907-.91ZM7.47.953h-.074c-1.848.23-3.633.57-5.422 1.09a.491.491 0 0 0-.317.57l.328 1.301c.059.219.278.332.5.258 1.829-.567 3.66-.953 5.551-1.234.219-.032.336-.258.254-.485-.168-.476-.25-.715-.422-1.187A.47.47 0 0 0 7.47.953Zm37.613.055c-.465 0-1.348.262-1.754.566V9.16h1.754Zm19.785 0c-.453 0-1.347.262-1.754.566v7.242c.578.274 1.543.461 2.543.461 2.047 0 3.301-1.242 3.301-3.39 0-1.535-.71-2.75-2.441-2.75-.543 0-1.149.234-1.649.672Zm-49.945.285c-.852 0-1.57.094-2.524.234V9.16h2.86c1.558 0 2.93-.922 2.93-2.305 0-1.05-.454-1.699-1.512-2.007.687-.27 1.07-.766 1.07-1.512 0-1.3-1.258-2.043-2.824-2.043Zm0 1.488c.73 0 1.066.344 1.066.828 0 .508-.324.801-1.02.801h-.792V2.84c.246-.035.5-.059.746-.059Zm19.48.344c-1.836 0-3.254 1.086-3.254 3.152 0 1.914 1.172 3 2.961 3 .524 0 1.188-.117 1.828-.379l-.316-1.418c-.43.157-.777.215-1.082.215-1.102 0-1.543-.578-1.543-1.523 0-.934.477-1.547 1.649-1.547.187 0 .511.047.71.105.266-.296.512-.816.579-1.406-.555-.129-1.02-.199-1.532-.199Zm4.903 0c-1.778 0-3.032 1.18-3.032 3.07 0 1.867 1.184 3.082 3.032 3.082 1.84 0 3.035-1.18 3.035-3.082 0-1.843-1.184-3.07-3.035-3.07Zm9.8 0c-1.777 0-3.035 1.18-3.035 3.07 0 1.867 1.188 3.082 3.035 3.082 1.836 0 3.032-1.18 3.032-3.082 0-1.843-1.184-3.07-3.032-3.07Zm6.622.012c-.914 0-2.008.27-2.707.765l-.008 5.258h1.754V4.73c.218-.058.476-.093.742-.093.699 0 1.094.316 1.094.945V9.16h1.73V5.664c0-.309-.047-.59-.14-.851a2.36 2.36 0 0 1 .898-.176c.695 0 1.09.316 1.09.945V9.16h1.734V4.953c0-1.133-.988-1.816-2.258-1.816-.695 0-1.523.258-2.117.648-.453-.402-1.078-.648-1.812-.648Zm-27.797 0c-.97 0-2.153.27-2.887.765l-.008 5.258h1.754V4.73c.219-.058.477-.093.742-.093.711 0 1.117.316 1.117.945V9.16h1.743V4.953c0-1.144-1.125-1.816-2.465-1.816Zm42.898 0c-.34 0-.64.058-.883.164v5.86H71.7V3.3a2.159 2.159 0 0 0-.87-.164Zm-49.488.008c-.766 0-1.477.19-2.195.46l.14.426c.184.52.406.7.684.7.117 0 1.011-.157 1.347-.157.641 0 .93.192.965.922-1.918.059-3.531.473-3.531 2.164 0 1.121 1.008 1.63 2.23 1.63 1.372 0 2.383-.259 3.012-.747V5.438c0-1.653-.976-2.29-2.652-2.293Zm53.824 0c-.77 0-1.477.19-2.2.46l.141.426c.188.52.407.7.688.7.113 0 1.012-.157 1.348-.157.636 0 .93.192.964.922-1.918.059-3.535.473-3.535 2.164 0 1.121 1.012 1.63 2.23 1.63 1.376 0 2.388-.259 3.013-.747V5.438c0-1.653-.977-2.29-2.649-2.293Zm-66.152.699a.212.212 0 0 0-.07 0C6.046 4.214 3.23 4.938.558 6.129a.52.52 0 0 0-.27.555c.106.558.156.836.266 1.394.043.238.265.348.484.242C3.75 7.066 6.617 6.27 9.56 5.793c.187-.031.28-.246.21-.469a98.75 98.75 0 0 0-.374-1.148c-.063-.188-.22-.32-.383-.332Zm56.758.793c.898 0 1.453.39 1.453 1.476 0 .942-.442 1.746-1.465 1.746-.278 0-.582-.023-.895-.07V4.824c.258-.117.547-.187.907-.187Zm-26.465.023c.816 0 1.28.567 1.28 1.535 0 1.016-.464 1.547-1.28 1.547-.801 0-1.278-.531-1.278-1.547 0-.968.489-1.535 1.278-1.535Zm9.8 0c.813 0 1.278.567 1.278 1.535 0 1.016-.465 1.547-1.278 1.547-.804 0-1.28-.531-1.28-1.547 0-.968.487-1.535 1.28-1.535Zm-34.93 1.227h.93c.782 0 1.176.261 1.176.886 0 .579-.43.887-1.187.887h-.918Zm7.77.746h.336v1.015c-.172.153-.547.293-.996.293-.57 0-.851-.152-.851-.578 0-.554.722-.73 1.511-.73Zm53.825 0h.335v1.015c-.175.153-.546.293-1 .293-.57 0-.847-.152-.847-.578 0-.554.719-.73 1.512-.73ZM8.98 6.94c-.027 0-.05 0-.074.008-1.808.395-3.57.871-5.32 1.477a.45.45 0 0 0-.29.531l.352 1.297c.063.242.336.367.586.273a51.5 51.5 0 0 1 5.317-1.625c.172-.043.258-.246.195-.457-.117-.39-.238-.777-.36-1.164-.062-.199-.23-.336-.406-.34Zm0 0"/></svg>
